X:8092
T:Wicklow Hornpipe, The
T:Road To Boyle, The
T:Homebrew Hornpipe, The
O:england
R:hornpipe
N:Bar 4 also played |DG~G2 DGGB|
D:John Williams
M:C|
K:D
FG|ABAF DEFG|AGFD =c2 (3AB^c|dcde fdAF|DGGF G2FG|
ABAF DEFG|AGFD =c2 (3AB^c|dcde fdAG|F2D2 D2:|
|:de|~f3d ecAF|Gggf g2 (3efg|agab agec|dcAF G2FG|
ABAF DEFG|AGFD =c2 (3AB^c|dcde fdAG|F2D2 D2:|
